modules/feathericon/icons/shopping-bag.svg

<?xml version="1.0" encoding="UTF-8"?>
<svg width="24px" height="24px" viewBox="0 0 24 24" version="1.1" xmlns="http://www.w3.org/2000/svg" xmlns:xlink="http://www.w3.org/1999/xlink">
    <!-- Generator: sketchtool 52.2 (67145) - http://www.bohemiancoding.com/sketch -->
    <title>shopping-bag</title>
    <desc>Created with sketchtool.</desc>
    <g id="e-commerce" stroke="none" stroke-width="1" fill="none" fill-rule="evenodd">
        <g id="shopping-bag" fill="#000000" fill-rule="nonzero">
            <path d="M8,8 L8,5 C8,3.8954305 8.8954305,3 10,3 L14,3 C15.1045695,3 16,3.8954305 16,5 L16,8 L19,8 C20.1045695,8 21,8.8954305 21,10 L21,19 C21,20.1045695 20.1045695,21 19,21 L5,21 C3.8954305,21 3,20.1045695 3,19 L3,10 C3,8.8954305 3.8954305,8 5,8 L8,8 Z M5,10 L5,19 L19,19 L19,10 L15.9981873,10 L15.9981873,13 L14,13 L14,10 L10,10 L10,13 L8,13 L8,10 L5,10 Z M10,8 L14,8 L14,5 L10,5 L10,8 Z" id="Shape"></path>
        </g>
    </g>
</svg>

<svg width="24" height="24" viewBox="0 0 24 24" xmlns="http://www.w3.org/2000/svg"><path d="M8 8V5a2 2 0 0 1 2-2h4a2 2 0 0 1 2 2v3h3a2 2 0 0 1 2 2v9a2 2 0 0 1-2 2H5a2 2 0 0 1-2-2v-9a2 2 0 0 1 2-2h3zm-3 2v9h14v-9h-3.002v3H14v-3h-4v3H8v-3H5zm5-2h4V5h-4v3z" fill="#000" fill-rule="nonzero"/></svg>
